src/assets/images/nvidia_logo.svg

<svg fill="none" height="52" viewBox="0 0 71 52" width="71" xmlns="http://www.w3.org/2000/svg"><path d="m70.5036 50.3544c0 .7578-.5594 1.2663-1.2216 1.2663v-.0046c-.681.0046-1.2301-.5039-1.2301-1.2615 0-.7573.5491-1.2645 1.2301-1.2645.6624-.0002 1.2216.507 1.2216 1.2643zm.4955 0c0-1.0398-.8121-1.6435-1.7171-1.6435-.9113 0-1.7234.6037-1.7234 1.6435 0 1.0393.8123 1.6453 1.7234 1.6453.9052 0 1.7171-.606 1.7171-1.6453zm-2.002.1391h.1839l.426.744h.4679l-.4719-.7754c.2438-.0173.4444-.1328.4444-.4593 0-.4057-.2812-.5361-.7575-.5361h-.6891v1.7708h.3961v-.744m.0002-.2998v-.4264h.2756c.1499 0 .3541.012.3541.1939 0 .1979-.1056.2325-.2824.2325z" fill="#f7f7f7"/><path d="m59.4363 41.2962 2.1409 5.8258h-4.3481zm-2.2929-2.2684-4.9338 12.4341h3.484l.7804-2.1971h5.8388l.7385 2.1971h3.7822l-4.9706-12.4357zm-9.9053 12.4387h3.5346v-12.4426l-3.5353-.0008zm-24.5381-12.4434-2.949 9.8617-2.825-9.8609-3.8138-.0008 4.0346 12.4434h5.0922l4.0671-12.4434zm14.2874 2.7095h1.5192c2.204 0 3.6294.9842 3.6294 3.5383 0 2.5548-1.4254 3.5392-3.6294 3.5392h-1.5192zm-3.5049-2.7095v12.4434h5.7303c3.0531 0 4.05-.5048 5.128-1.6373.7614-.7951 1.2539-2.54 1.2539-4.4475 0-1.7496-.4168-3.3091-1.1434-4.2809-1.3093-1.7379-3.1953-2.0777-6.01-2.0777zm-33.4825-.0172v12.4606h3.56455v-9.4614l2.76194.0008c.91452 0 1.56642.2266 2.00681.6946.55857.5918.78664 1.5471.78664 3.2944v5.4716h3.45406v-6.8846c0-4.9135-3.14861-5.576-6.22933-5.576zm27.7938.0172.0014 12.4434h3.533v-12.4434z" fill="#f7f7f7"/><path d="m9.50051 14.247s4.54609-6.6718 13.62329-7.36203v-2.42051c-10.0541.80316-18.76052 9.27314-18.76052 9.27314s4.93117 14.1793 18.76052 15.4775v-2.5728c-10.1486-1.2699-13.62329-12.3953-13.62329-12.3953zm13.62329 7.2786v2.3562c-7.6701-1.3602-9.7992-9.2908-9.7992-9.2908s3.6828-4.058 9.7992-4.71606v2.58546c-.0047 0-.0079-.0014-.0118-.0014-3.2102-.3832-5.718 2.5998-5.718 2.5998s1.4056 5.0216 5.7298 6.4668zm0-21.5256v4.46446c.2951-.0225.5902-.04159.887-.05164 11.4304-.38319 18.8781 9.32478 18.8781 9.32478s-8.5539 10.3459-17.4656 10.3459c-.8168 0-1.5814-.0753-2.2995-.2019v2.7607c.6141.0776 1.2508.1232 1.9153.1232 8.2929 0 14.2901-4.2127 20.0972-9.1986.9628.767 4.9045 2.6329 5.7147 3.4497-5.5214 4.5981-18.3895 8.3046-25.6849 8.3046-.7032 0-1.3785-.0424-2.0423-.1061v3.8794h31.5207v-33.0945zm0 9.87494v-2.98997c.2921-.02029.5864-.03576.887-.04521 8.2196-.2568 13.6121 7.02584 13.6121 7.02584s-5.8244 8.0462-12.0695 8.0462c-.8988 0-1.7044-.1437-2.4296-.3862v-9.0652c3.1999.3846 3.8437 1.7906 5.7675 4.9805l4.2786-3.5886s-3.1233-4.07441-8.3884-4.07441c-.5723-.0002-1.12.03979-1.6577.09705z" fill="#77b900"/></svg>

<svg width="71" height="52" viewBox="0 0 71 52" fill="none" xmlns="http://www.w3.org/2000/svg">
<g clipPath="url(#clip0_2079_3454)">
<path d="M70.5036 50.3544C70.5036 51.1122 69.9442 51.6207 69.282 51.6207V51.6161C68.601 51.6207 68.0519 51.1122 68.0519 50.3546C68.0519 49.5973 68.601 49.0901 69.282 49.0901C69.9444 49.0899 70.5036 49.5971 70.5036 50.3544ZM70.9991 50.3544C70.9991 49.3146 70.187 48.7109 69.282 48.7109C68.3707 48.7109 67.5586 49.3146 67.5586 50.3544C67.5586 51.3937 68.3709 51.9997 69.282 51.9997C70.1872 51.9997 70.9991 51.3937 70.9991 50.3544ZM68.9971 50.4935H69.181L69.607 51.2375H70.0749L69.603 50.4621C69.8468 50.4448 70.0474 50.3293 70.0474 50.0028C70.0474 49.5971 69.7662 49.4667 69.2899 49.4667H68.6008V51.2375H68.9969V50.4935M68.9971 50.1937V49.7673H69.2727C69.4226 49.7673 69.6268 49.7793 69.6268 49.9612C69.6268 50.1591 69.5212 50.1937 69.3444 50.1937H68.9971Z" fill="#F7F7F7"/>
<path d="M59.4363 41.2962L61.5772 47.122H57.2291L59.4363 41.2962ZM57.1434 39.0278L52.2096 51.4619H55.6936L56.474 49.2648H62.3128L63.0513 51.4619H66.8335L61.8629 39.0262L57.1434 39.0278ZM47.2381 51.4665H50.7727V39.0239L47.2374 39.0231L47.2381 51.4665ZM22.7 39.0231L19.751 48.8848L16.926 39.0239L13.1122 39.0231L17.1468 51.4665H22.239L26.3061 39.0231H22.7ZM36.9874 41.7326H38.5066C40.7106 41.7326 42.136 42.7168 42.136 45.2709C42.136 47.8257 40.7106 48.8101 38.5066 48.8101H36.9874V41.7326ZM33.4825 39.0231V51.4665H39.2128C42.2659 51.4665 43.2628 50.9617 44.3408 49.8292C45.1022 49.0341 45.5947 47.2892 45.5947 45.3817C45.5947 43.6321 45.1779 42.0726 44.4513 41.1008C43.142 39.3629 41.256 39.0231 38.4413 39.0231H33.4825ZM0 39.0059V51.4665H3.56455V42.0051L6.32649 42.0059C7.24101 42.0059 7.89291 42.2325 8.3333 42.7005C8.89187 43.2923 9.11994 44.2476 9.11994 45.9949V51.4665H12.574V44.5819C12.574 39.6684 9.42539 39.0059 6.34467 39.0059H0ZM27.7938 39.0231L27.7952 51.4665H31.3282V39.0231H27.7938Z" fill="#F7F7F7"/>
<path d="M9.50051 14.247C9.50051 14.247 14.0466 7.5752 23.1238 6.88497V4.46446C13.0697 5.26762 4.36328 13.7376 4.36328 13.7376C4.36328 13.7376 9.29445 27.9169 23.1238 29.2151V26.6423C12.9752 25.3724 9.50051 14.247 9.50051 14.247ZM23.1238 21.5256V23.8818C15.4537 22.5216 13.3246 14.591 13.3246 14.591C13.3246 14.591 17.0074 10.533 23.1238 9.87494V12.4604C23.1191 12.4604 23.1159 12.459 23.112 12.459C19.9018 12.0758 17.394 15.0588 17.394 15.0588C17.394 15.0588 18.7996 20.0804 23.1238 21.5256ZM23.1238 0V4.46446C23.4189 4.44196 23.714 4.42287 24.0108 4.41282C35.4412 4.02963 42.8889 13.7376 42.8889 13.7376C42.8889 13.7376 34.335 24.0835 25.4233 24.0835C24.6065 24.0835 23.8419 24.0082 23.1238 23.8816V26.6423C23.7379 26.7199 24.3746 26.7655 25.0391 26.7655C33.332 26.7655 39.3292 22.5528 45.1363 17.5669C46.0991 18.3339 50.0408 20.1998 50.851 21.0166C45.3296 25.6147 32.4615 29.3212 25.1661 29.3212C24.4629 29.3212 23.7876 29.2788 23.1238 29.2151V33.0945H54.6445V0H23.1238ZM23.1238 9.87494V6.88497C23.4159 6.86468 23.7102 6.84921 24.0108 6.83976C32.2304 6.58296 37.6229 13.8656 37.6229 13.8656C37.6229 13.8656 31.7985 21.9118 25.5534 21.9118C24.6546 21.9118 23.849 21.7681 23.1238 21.5256V12.4604C26.3237 12.845 26.9675 14.251 28.8913 17.4409L33.1699 13.8523C33.1699 13.8523 30.0466 9.77789 24.7815 9.77789C24.2092 9.77769 23.6615 9.81768 23.1238 9.87494Z" fill="#77B900"/>
</g>
<defs>
<clipPath id="clip0_2079_3454">
<rect width="71" height="52" fill="white"/>
</clipPath>
</defs>
</svg>
